!!!COM: Bach, Johann Sebastian
!!!CDT: 1685/3//-1750/7/28/
!!!OTL@@DE: O Gott, du frommer Gott
!!!OTL@EN:  O pious God
!!!AGN: 4-Part Chorale
!!!SCT: BH 315
!!!SCT: BWV 399
**harm	**root	**kern	**kern	**kern	**kern
!	!	!bass	!tenor	!alto	!soprno
*	*Iorgan	*Iorgan	*Iorgan	*Iorgan	*Iorgan
*	*	*clefF4	*clefF4	*clefG2	*clefG2
*M4/4	*M4/4	*M4/4	*M4/4	*M4/4	*M4/4
*met(c)	*met(c)	*met(c)	*met(c)	*met(c)	*met(c)
*MM56	*MM56	*MM56	*MM56	*MM56	*MM56
*k[f#c#g#d#a#e#]	*k[f#c#g#d#a#e#]	*k[f#c#g#d#a#e#]	*k[f#c#g#d#a#e#]	*k[f#c#g#d#a#e#]	*k[f#c#g#d#a#e#]
*>[A,A,B]	*>[A,A,B]	*>[A,A,B]	*>[A,A,B]	*>[A,A,B]	*>[A,A,B]
*>A	*>A	*>A	*>A	*>A	*>A
*F#:	*F#:	*F#:	*F#:	*F#:	*F#:
vi	4EE	[4D#	8F#	4f#	4a#
.	.	.	8G#	.	.
=1	=1	=1	=1	=1	=1
iii7	4.BB	8D#]	4.A#	4e#	4a#
.	.	4C#	.	.	.
.	.	.	.	8f#	4dd#
vii7Dc	8FF#	8BB	8G#	8e#	.
Ib	8GG	8AA#	8A#	4f#	4cc#
IV	8CC	8BB	8d#	.	.
V7	4DD	4C#	4c#	4e#	16b
.	.	.	.	.	16a#
.	.	.	.	.	8b
=2	=2	=2	=2	=2	=2
I;	2.GG;	2.FF#;	2.c#;	2.f#;	2.a#;
I	8GG	8FF#	8c#	4f#	8a#
ii7	8AA	8GG#	8B	.	8b
=3	=3	=3	=3	=3	=3
Ib	4GG	4AA#	8A#	8f#	4cc#
.	.	.	8G#	8e#	.
IV	4CC	[4BB	4F#	8d#	4f#
.	.	.	.	16e#	.
.	.	.	.	16f#	.
V7d	4DD	8BB]	4c#	4e#	4g#
.	.	8AA#	.	.	.
I	4GG	8GG#	4c#	[4f#	4a#
.	.	8FF#	.	.	.
=4	=4	=4	=4	=4	=4
V7	2DD	2C#	4.c#	8f#]	2g#
.	.	.	.	8d#	.
.	.	.	.	4e#	.
.	.	.	8B	.	.
I;	4GG;	4FF#;	4A#;	4c#;	4f#;
=:|!	=:|!	=:|!	=:|!	=:|!	=:|!
*>B	*>B	*>B	*>B	*>B	*>B
V7d/V	4AA	[4F#	4B#	4d#	4g#
=5	=5	=5	=5	=5	=5
Vb	4DD	8F#]	4c#	4c#	4g#
.	.	8E#	.	.	.
iiib	4BB	8D#	4c#	4e#	4a#
.	.	8C#	.	.	.
IVb	4CC	4D#	8B	4f#	8b
.	.	.	8A#	.	8dd#
vi	8EE	4E#	8G#	4g#	8cc#
V7b	8DD	.	8c#	.	8b
!!linebreak: 2
=6	=6	=6	=6	=6	=6
I;	2.GG;	2.F#;	2.c#;	2.f#;	2.a#;
*C#:	*C#:	*C#:	*C#:	*C#:	*C#:
IV	4GG	4FF#	4c#	8f#	4a#
.	.	.	.	8e#	.
=7	=7	=7	=7	=7	=7
V7d	8AA	8F#	8B#	8d#	4g#
Ib	8DD	8E#	8G#	16c#	.
.	.	.	.	16B#	.
IV	8GG	8A#	8F#	4c#	8cc#
I	8DD	8G#	8E#	.	16dd#
.	.	.	.	.	16ee#
iib	8EE	8F#	8A#	8f#	4dd#
ii	8EE	8D#	8f#	8a#	.
Ic	8DD	4G#	8e#	8g#	8cc#
V	8AA	.	8d#	8f#	8b#
=8	=8	=8	=8	=8	=8
I;	2.DD;	2.C#;	2.c#;	2.e#;	2.cc#;
*B:	*B:	*B:	*B:	*B:	*B:
V/V	4DD	8c#	4e#	4g#	4cc#
.	.	8B	.	.	.
=9	=9	=9	=9	=9	=9
Vb	4GG	8A#	4f#	4f#	4cc#
.	.	8G#	.	.	.
V7d	4GG	8F#	4c#	4f#	4a#
.	.	8E	.	.	.
Ib	4CC	8D#	4d#	4f#	4b
.	.	8C#	.	.	.
V7b	4GG	8BB	4e	4f#	4cc#
.	.	8AA#	.	.	.
=10	=10	=10	=10	=10	=10
I;	2.CC;	2.BB;	2.d#;	2.f#;	2.dd#;
*F#:	*F#:	*F#:	*F#:	*F#:	*F#:
V	4DD	4C#	4c#	4e#	4g#
=11	=11	=11	=11	=11	=11
I	4GG	8FF#	4c#	4f#	8a#
.	.	8GG#	.	.	16b
.	.	.	.	.	16cc#
IV7	4CC	8AA#	8c#	4f#	8b
.	.	8BB	8d#	.	8a#
Ic	4GG	4C#	4c#	4f#	4a#
V7	4DD	4C#	4B	4e#	8g#
.	.	.	.	.	8f#
=12	=12	=12	=12	=12	=12
I;	2.GG;	2.FF#;	2.A#;	2.c#;	2.f#;
==|!	==|!	==|!	==|!	==|!	==|!
*-	*-	*-	*-	*-	*-
!!chor2scor: -l 2 -o %b.pmx
!!!YEC: Copyright 2003 by Craig Stuart Sapp
!!!license: GNU General Public License (http://www.gnu.org/copyleft/gpl.html)
!!!SMA: 371 Bach Chorales, edited by Ludwig Erk, C.F. Peters
!!!PDT: 1850, 1865
!!!ONB: Harmony and Root analysis done manually by Craig Sapp
